images/123924.svg

<?xml version="1.0" encoding="UTF-8"?>
<svg xmlns="http://www.w3.org/2000/svg" xmlns:xlink="http://www.w3.org/1999/xlink" width="300pt" height="300pt" viewBox="0 0 300 300" version="1.1">
<defs>
<g>
<symbol overflow="visible" id="glyph0-0">
<path style="stroke:none;" d="M 0.546875 1.9375 L 0.546875 -7.75 L 6.046875 -7.75 L 6.046875 1.9375 Z M 1.171875 1.328125 L 5.4375 1.328125 L 5.4375 -7.140625 L 1.171875 -7.140625 Z M 1.171875 1.328125 "/>
</symbol>
<symbol overflow="visible" id="glyph0-1">
<path style="stroke:none;" d="M 1.078125 -8.015625 L 2.546875 -8.015625 L 6.09375 -1.3125 L 6.09375 -8.015625 L 7.15625 -8.015625 L 7.15625 0 L 5.6875 0 L 2.125 -6.703125 L 2.125 0 L 1.078125 0 Z M 1.078125 -8.015625 "/>
</symbol>
<symbol overflow="visible" id="glyph0-2">
<path style="stroke:none;" d="M 4.328125 -7.28125 C 3.546875 -7.28125 2.921875 -6.984375 2.453125 -6.390625 C 1.992188 -5.804688 1.765625 -5.007812 1.765625 -4 C 1.765625 -2.988281 1.992188 -2.1875 2.453125 -1.59375 C 2.921875 -1.007812 3.546875 -0.71875 4.328125 -0.71875 C 5.117188 -0.71875 5.742188 -1.007812 6.203125 -1.59375 C 6.660156 -2.1875 6.890625 -2.988281 6.890625 -4 C 6.890625 -5.007812 6.660156 -5.804688 6.203125 -6.390625 C 5.742188 -6.984375 5.117188 -7.28125 4.328125 -7.28125 Z M 4.328125 -8.171875 C 5.453125 -8.171875 6.351562 -7.789062 7.03125 -7.03125 C 7.707031 -6.28125 8.046875 -5.269531 8.046875 -4 C 8.046875 -2.738281 7.707031 -1.726562 7.03125 -0.96875 C 6.351562 -0.21875 5.453125 0.15625 4.328125 0.15625 C 3.203125 0.15625 2.300781 -0.21875 1.625 -0.96875 C 0.957031 -1.71875 0.625 -2.726562 0.625 -4 C 0.625 -5.269531 0.957031 -6.28125 1.625 -7.03125 C 2.300781 -7.789062 3.203125 -8.171875 4.328125 -8.171875 Z M 4.328125 -8.171875 "/>
</symbol>
</g>
</defs>
<g id="surface49745">
<rect x="0" y="0" width="300" height="300" style="fill:rgb(100%,100%,100%);fill-opacity:1;stroke:none;"/>
<path style="fill:none;stroke-width:1.2;stroke-linecap:butt;stroke-linejoin:miter;stroke:rgb(0%,0%,0%);stroke-opacity:1;stroke-miterlimit:10;" d="M 264.75 199.625 L 255.40625 175.574219 "/>
<path style="fill:none;stroke-width:1.2;stroke-linecap:butt;stroke-linejoin:miter;stroke:rgb(0%,0%,0%);stroke-opacity:1;stroke-miterlimit:10;" d="M 255.40625 175.574219 L 242.65625 173.605469 "/>
<path style="fill:none;stroke-width:1.2;stroke-linecap:butt;stroke-linejoin:miter;stroke:rgb(0%,0%,100%);stroke-opacity:1;stroke-miterlimit:10;" d="M 242.65625 173.605469 L 229.90625 171.640625 "/>
<path style="fill:none;stroke-width:1.2;stroke-linecap:butt;stroke-linejoin:miter;stroke:rgb(0%,0%,100%);stroke-opacity:1;stroke-miterlimit:10;" d="M 229.90625 171.640625 L 221.828125 181.699219 "/>
<path style="fill:none;stroke-width:1.2;stroke-linecap:butt;stroke-linejoin:miter;stroke:rgb(0%,0%,0%);stroke-opacity:1;stroke-miterlimit:10;" d="M 221.828125 181.699219 L 213.75 191.753906 "/>
<path style="fill:none;stroke-width:1.2;stroke-linecap:butt;stroke-linejoin:miter;stroke:rgb(0%,0%,100%);stroke-opacity:1;stroke-miterlimit:10;" d="M 229.90625 171.640625 L 225.234375 159.613281 "/>
<path style="fill:none;stroke-width:1.2;stroke-linecap:butt;stroke-linejoin:miter;stroke:rgb(0%,0%,0%);stroke-opacity:1;stroke-miterlimit:10;" d="M 225.234375 159.613281 L 220.566406 147.589844 "/>
<path style=" stroke:none;fill-rule:nonzero;fill:rgb(100%,100%,100%);fill-opacity:1;" d="M 225.90625 165.140625 L 233.90625 165.140625 L 233.90625 178.140625 L 225.90625 178.140625 Z M 225.90625 165.140625 "/>
<g style="fill:rgb(0%,0%,100%);fill-opacity:1;">
  <use xlink:href="#glyph0-1" x="225.90625" y="175.041992"/>
</g>
<path style="fill:none;stroke-width:1.2;stroke-linecap:butt;stroke-linejoin:miter;stroke:rgb(0%,0%,0%);stroke-opacity:1;stroke-miterlimit:10;" d="M 213.75 191.753906 L 223.09375 215.804688 "/>
<path style="fill:none;stroke-width:1.2;stroke-linecap:butt;stroke-linejoin:miter;stroke:rgb(0%,0%,0%);stroke-opacity:1;stroke-miterlimit:10;" d="M 222.929688 149.488281 L 231.011719 139.429688 "/>
<path style="fill:none;stroke-width:1.2;stroke-linecap:butt;stroke-linejoin:miter;stroke:rgb(100%,0%,0%);stroke-opacity:1;stroke-miterlimit:10;" d="M 231.011719 139.429688 L 239.089844 129.371094 "/>
<path style="fill:none;stroke-width:1.2;stroke-linecap:butt;stroke-linejoin:miter;stroke:rgb(0%,0%,0%);stroke-opacity:1;stroke-miterlimit:10;" d="M 218.199219 145.6875 L 226.277344 135.628906 "/>
<path style="fill:none;stroke-width:1.2;stroke-linecap:butt;stroke-linejoin:miter;stroke:rgb(100%,0%,0%);stroke-opacity:1;stroke-miterlimit:10;" d="M 226.277344 135.628906 L 234.355469 125.570312 "/>
<path style="fill:none;stroke-width:1.2;stroke-linecap:butt;stroke-linejoin:miter;stroke:rgb(0%,0%,0%);stroke-opacity:1;stroke-miterlimit:10;" d="M 220.566406 147.589844 L 195.066406 143.652344 "/>
<path style=" stroke:none;fill-rule:nonzero;fill:rgb(100%,100%,100%);fill-opacity:1;" d="M 232.722656 120.972656 L 241.722656 120.972656 L 241.722656 133.972656 L 232.722656 133.972656 Z M 232.722656 120.972656 "/>
<g style="fill:rgb(100%,0%,0%);fill-opacity:1;">
  <use xlink:href="#glyph0-2" x="232.722656" y="130.874023"/>
</g>
<path style="fill:none;stroke-width:1.2;stroke-linecap:butt;stroke-linejoin:miter;stroke:rgb(0%,0%,0%);stroke-opacity:1;stroke-miterlimit:10;" d="M 195.066406 143.652344 L 178.90625 163.769531 "/>
<path style="fill:none;stroke-width:1.2;stroke-linecap:butt;stroke-linejoin:miter;stroke:rgb(0%,0%,0%);stroke-opacity:1;stroke-miterlimit:10;" d="M 188.714844 141.863281 L 175.789062 157.957031 "/>
<path style="fill:none;stroke-width:1.2;stroke-linecap:butt;stroke-linejoin:miter;stroke:rgb(0%,0%,0%);stroke-opacity:1;stroke-miterlimit:10;" d="M 185.722656 119.601562 L 195.066406 143.652344 "/>
<path style="fill:none;stroke-width:1.2;stroke-linecap:butt;stroke-linejoin:miter;stroke:rgb(0%,0%,0%);stroke-opacity:1;stroke-miterlimit:10;" d="M 178.90625 163.769531 L 153.40625 159.835938 "/>
<path style="fill:none;stroke-width:1.2;stroke-linecap:butt;stroke-linejoin:miter;stroke:rgb(0%,0%,0%);stroke-opacity:1;stroke-miterlimit:10;" d="M 153.40625 159.835938 L 144.066406 135.785156 "/>
<path style="fill:none;stroke-width:1.2;stroke-linecap:butt;stroke-linejoin:miter;stroke:rgb(0%,0%,0%);stroke-opacity:1;stroke-miterlimit:10;" d="M 158.132812 155.234375 L 150.65625 135.992188 "/>
<path style="fill:none;stroke-width:1.2;stroke-linecap:butt;stroke-linejoin:miter;stroke:rgb(0%,0%,0%);stroke-opacity:1;stroke-miterlimit:10;" d="M 144.066406 135.785156 L 160.222656 115.667969 "/>
<path style=" stroke:none;fill-rule:nonzero;fill:rgb(0%,0%,0%);fill-opacity:1;" d="M 118.566406 131.851562 L 143.371094 140.285156 L 144.757812 131.285156 Z M 118.566406 131.851562 "/>
<path style="fill:none;stroke-width:1.2;stroke-linecap:butt;stroke-linejoin:miter;stroke:rgb(0%,0%,0%);stroke-opacity:1;stroke-miterlimit:10;" d="M 160.222656 115.667969 L 185.722656 119.601562 "/>
<path style="fill:none;stroke-width:1.2;stroke-linecap:butt;stroke-linejoin:miter;stroke:rgb(0%,0%,0%);stroke-opacity:1;stroke-miterlimit:10;" d="M 161.847656 122.0625 L 182.246094 125.210938 "/>
<path style="fill:none;stroke-width:1.2;stroke-linecap:butt;stroke-linejoin:miter;stroke:rgb(0%,0%,0%);stroke-opacity:1;stroke-miterlimit:10;" d="M 118.566406 131.851562 L 109.222656 107.800781 "/>
<path style="fill:none;stroke-width:1.2;stroke-linecap:butt;stroke-linejoin:miter;stroke:rgb(0%,0%,0%);stroke-opacity:1;stroke-miterlimit:10;" d="M 118.566406 131.851562 L 110.484375 141.910156 "/>
<path style="fill:none;stroke-width:1.2;stroke-linecap:butt;stroke-linejoin:miter;stroke:rgb(0%,0%,100%);stroke-opacity:1;stroke-miterlimit:10;" d="M 110.484375 141.910156 L 102.40625 151.96875 "/>
<path style="fill:none;stroke-width:1.2;stroke-linecap:butt;stroke-linejoin:miter;stroke:rgb(0%,0%,0%);stroke-opacity:1;stroke-miterlimit:10;" d="M 109.222656 107.800781 L 125.378906 87.683594 "/>
<path style="fill:none;stroke-width:1.2;stroke-linecap:butt;stroke-linejoin:miter;stroke:rgb(0%,0%,0%);stroke-opacity:1;stroke-miterlimit:10;" d="M 106.105469 101.988281 L 119.03125 85.894531 "/>
<path style="fill:none;stroke-width:1.2;stroke-linecap:butt;stroke-linejoin:miter;stroke:rgb(0%,0%,0%);stroke-opacity:1;stroke-miterlimit:10;" d="M 83.722656 103.867188 L 109.222656 107.800781 "/>
<path style="fill:none;stroke-width:1.2;stroke-linecap:butt;stroke-linejoin:miter;stroke:rgb(0%,0%,0%);stroke-opacity:1;stroke-miterlimit:10;" d="M 125.378906 87.683594 L 116.035156 63.632812 "/>
<path style="fill:none;stroke-width:1.2;stroke-linecap:butt;stroke-linejoin:miter;stroke:rgb(0%,0%,0%);stroke-opacity:1;stroke-miterlimit:10;" d="M 116.035156 63.632812 L 90.535156 59.699219 "/>
<path style="fill:none;stroke-width:1.2;stroke-linecap:butt;stroke-linejoin:miter;stroke:rgb(0%,0%,0%);stroke-opacity:1;stroke-miterlimit:10;" d="M 112.5625 69.238281 L 92.160156 66.089844 "/>
<path style="fill:none;stroke-width:1.2;stroke-linecap:butt;stroke-linejoin:miter;stroke:rgb(0%,0%,0%);stroke-opacity:1;stroke-miterlimit:10;" d="M 116.035156 63.632812 L 124.113281 53.574219 "/>
<path style="fill:none;stroke-width:1.2;stroke-linecap:butt;stroke-linejoin:miter;stroke:rgb(100%,0%,0%);stroke-opacity:1;stroke-miterlimit:10;" d="M 124.113281 53.574219 L 132.195312 43.515625 "/>
<path style="fill:none;stroke-width:1.2;stroke-linecap:butt;stroke-linejoin:miter;stroke:rgb(0%,0%,0%);stroke-opacity:1;stroke-miterlimit:10;" d="M 90.535156 59.699219 L 74.378906 79.816406 "/>
<path style="fill:none;stroke-width:1.2;stroke-linecap:butt;stroke-linejoin:miter;stroke:rgb(0%,0%,0%);stroke-opacity:1;stroke-miterlimit:10;" d="M 74.378906 79.816406 L 83.722656 103.867188 "/>
<path style="fill:none;stroke-width:1.2;stroke-linecap:butt;stroke-linejoin:miter;stroke:rgb(0%,0%,0%);stroke-opacity:1;stroke-miterlimit:10;" d="M 80.972656 80.019531 L 88.445312 99.261719 "/>
<path style="fill:none;stroke-width:1.2;stroke-linecap:butt;stroke-linejoin:miter;stroke:rgb(100%,0%,0%);stroke-opacity:1;stroke-miterlimit:10;" d="M 132.195312 43.515625 L 144.945312 45.484375 "/>
<path style="fill:none;stroke-width:1.2;stroke-linecap:butt;stroke-linejoin:miter;stroke:rgb(0%,0%,0%);stroke-opacity:1;stroke-miterlimit:10;" d="M 144.945312 45.484375 L 157.695312 47.449219 "/>
<path style=" stroke:none;fill-rule:nonzero;fill:rgb(100%,100%,100%);fill-opacity:1;" d="M 128.195312 37.015625 L 137.195312 37.015625 L 137.195312 50.015625 L 128.195312 50.015625 Z M 128.195312 37.015625 "/>
<g style="fill:rgb(100%,0%,0%);fill-opacity:1;">
  <use xlink:href="#glyph0-2" x="128.195312" y="46.916992"/>
</g>
<path style="fill:none;stroke-width:1.2;stroke-linecap:butt;stroke-linejoin:miter;stroke:rgb(0%,0%,100%);stroke-opacity:1;stroke-miterlimit:10;" d="M 102.40625 151.96875 L 89.65625 150 "/>
<path style="fill:none;stroke-width:1.2;stroke-linecap:butt;stroke-linejoin:miter;stroke:rgb(0%,0%,0%);stroke-opacity:1;stroke-miterlimit:10;" d="M 89.65625 150 L 76.90625 148.03125 "/>
<path style="fill:none;stroke-width:1.2;stroke-linecap:butt;stroke-linejoin:miter;stroke:rgb(0%,0%,0%);stroke-opacity:1;stroke-miterlimit:10;" d="M 111.75 176.019531 L 107.078125 163.992188 "/>
<path style="fill:none;stroke-width:1.2;stroke-linecap:butt;stroke-linejoin:miter;stroke:rgb(0%,0%,100%);stroke-opacity:1;stroke-miterlimit:10;" d="M 107.078125 163.992188 L 102.40625 151.96875 "/>
<path style=" stroke:none;fill-rule:nonzero;fill:rgb(100%,100%,100%);fill-opacity:1;" d="M 98.40625 145.46875 L 106.40625 145.46875 L 106.40625 158.46875 L 98.40625 158.46875 Z M 98.40625 145.46875 "/>
<g style="fill:rgb(0%,0%,100%);fill-opacity:1;">
  <use xlink:href="#glyph0-1" x="98.40625" y="155.370117"/>
</g>
<path style="fill:none;stroke-width:1.2;stroke-linecap:butt;stroke-linejoin:miter;stroke:rgb(0%,0%,0%);stroke-opacity:1;stroke-miterlimit:10;" d="M 76.90625 148.03125 L 60.75 168.148438 "/>
<path style="fill:none;stroke-width:1.2;stroke-linecap:butt;stroke-linejoin:miter;stroke:rgb(0%,0%,0%);stroke-opacity:1;stroke-miterlimit:10;" d="M 60.75 168.148438 L 65.421875 180.175781 "/>
<path style="fill:none;stroke-width:1.2;stroke-linecap:butt;stroke-linejoin:miter;stroke:rgb(0%,0%,100%);stroke-opacity:1;stroke-miterlimit:10;" d="M 65.421875 180.175781 L 70.09375 192.199219 "/>
<path style="fill:none;stroke-width:1;stroke-linecap:butt;stroke-linejoin:miter;stroke:rgb(0%,0%,0%);stroke-opacity:1;stroke-miterlimit:10;" d="M 60.75 168.148438 L 60.75 168.148438 M 57.910156 167.183594 L 57.75 168.214844 M 55.070312 166.21875 L 54.75 168.277344 M 52.230469 165.253906 L 51.753906 168.34375 M 49.390625 164.285156 L 48.753906 168.410156 M 46.546875 163.320312 L 45.753906 168.472656 M 43.707031 162.355469 L 42.753906 168.539062 M 40.867188 161.390625 L 39.753906 168.601562 M 38.027344 160.421875 L 36.753906 168.667969 M 35.945312 159.714844 L 34.554688 168.714844 "/>
<path style="fill:none;stroke-width:1.2;stroke-linecap:butt;stroke-linejoin:miter;stroke:rgb(0%,0%,100%);stroke-opacity:1;stroke-miterlimit:10;" d="M 70.09375 192.199219 L 82.84375 194.167969 "/>
<path style="fill:none;stroke-width:1.2;stroke-linecap:butt;stroke-linejoin:miter;stroke:rgb(0%,0%,0%);stroke-opacity:1;stroke-miterlimit:10;" d="M 82.84375 194.167969 L 95.59375 196.132812 "/>
<path style="fill:none;stroke-width:1.2;stroke-linecap:butt;stroke-linejoin:miter;stroke:rgb(0%,0%,100%);stroke-opacity:1;stroke-miterlimit:10;" d="M 70.09375 192.199219 L 62.015625 202.257812 "/>
<path style="fill:none;stroke-width:1.2;stroke-linecap:butt;stroke-linejoin:miter;stroke:rgb(0%,0%,0%);stroke-opacity:1;stroke-miterlimit:10;" d="M 62.015625 202.257812 L 53.933594 212.316406 "/>
<path style=" stroke:none;fill-rule:nonzero;fill:rgb(100%,100%,100%);fill-opacity:1;" d="M 66.09375 185.699219 L 74.09375 185.699219 L 74.09375 198.699219 L 66.09375 198.699219 Z M 66.09375 185.699219 "/>
<g style="fill:rgb(0%,0%,100%);fill-opacity:1;">
  <use xlink:href="#glyph0-1" x="66.09375" y="195.600586"/>
</g>
<path style="fill:none;stroke-width:1.2;stroke-linecap:butt;stroke-linejoin:miter;stroke:rgb(0%,0%,0%);stroke-opacity:1;stroke-miterlimit:10;" d="M 95.59375 196.132812 L 111.75 176.019531 "/>
<path style=" stroke:none;fill-rule:nonzero;fill:rgb(0%,0%,0%);fill-opacity:1;" d="M 111.75 176.019531 L 136.554688 184.453125 L 137.945312 175.453125 Z M 111.75 176.019531 "/>
<path style="fill:none;stroke-width:1.2;stroke-linecap:butt;stroke-linejoin:miter;stroke:rgb(0%,0%,0%);stroke-opacity:1;stroke-miterlimit:10;" d="M 53.933594 212.316406 L 63.277344 236.367188 "/>
<path style="fill:none;stroke-width:1.2;stroke-linecap:butt;stroke-linejoin:miter;stroke:rgb(0%,0%,0%);stroke-opacity:1;stroke-miterlimit:10;" d="M 60.910156 234.464844 L 44.753906 254.582031 "/>
<path style="fill:none;stroke-width:1.2;stroke-linecap:butt;stroke-linejoin:miter;stroke:rgb(0%,0%,0%);stroke-opacity:1;stroke-miterlimit:10;" d="M 65.644531 238.269531 L 49.488281 258.382812 "/>
</g>
</svg>

<svg xmlns="http://www.w3.org/2000/svg" xmlns:xlink="http://www.w3.org/1999/xlink" width="300pt" height="300pt" viewBox="0 0 300 300"><defs><symbol overflow="visible"><path d="M.547 1.938V-7.75h5.5v9.688zm.625-.61h4.266v-8.47H1.171zm0 0"/></symbol><symbol overflow="visible" id="a"><path d="M1.078-8.016h1.47l3.546 6.704v-6.704h1.062V0H5.688L2.124-6.703V0H1.078zm0 0"/></symbol><symbol overflow="visible" id="b"><path d="M4.328-7.28c-.78 0-1.406.296-1.875.89-.46.585-.687 1.382-.687 2.39 0 1.012.226 1.813.687 2.406.47.586 1.094.875 1.875.875.79 0 1.414-.288 1.875-.874.457-.593.688-1.394.688-2.406 0-1.008-.23-1.805-.687-2.39-.46-.594-1.086-.89-1.875-.89zm0-.892c1.125 0 2.024.383 2.703 1.14C7.708-6.28 8.048-5.27 8.048-4c0 1.262-.34 2.273-1.016 3.03C6.353-.22 5.454.157 4.33.157S2.3-.22 1.625-.97c-.668-.75-1-1.757-1-3.03 0-1.27.332-2.28 1-3.03.676-.76 1.578-1.142 2.703-1.142zm0 0"/></symbol></defs><g><path fill="#fff" d="M0 0h300v300H0z"/><path d="M264.75 199.625l-9.344-24.05M255.406 175.574l-12.75-1.97" stroke-width="1.2" stroke="#000" stroke-miterlimit="10" fill="none"/><path d="M242.656 173.605l-12.75-1.964M229.906 171.64l-8.078 10.06" stroke-width="1.2" stroke="#00f" stroke-miterlimit="10" fill="none"/><path d="M221.828 181.7l-8.078 10.054" stroke-width="1.2" stroke="#000" stroke-miterlimit="10" fill="none"/><path d="M229.906 171.64l-4.672-12.027" stroke-width="1.2" stroke="#00f" stroke-miterlimit="10" fill="none"/><path d="M225.234 159.613l-4.668-12.023" stroke-width="1.2" stroke="#000" stroke-miterlimit="10" fill="none"/><path d="M225.906 165.14h8v13h-8zm0 0" fill="#fff"/><use xlink:href="#a" x="225.906" y="175.042" fill="#00f"/><path d="M213.75 191.754l9.344 24.05M222.93 149.488l8.082-10.058" stroke-width="1.2" stroke="#000" stroke-miterlimit="10" fill="none"/><path d="M231.012 139.43l8.078-10.06" stroke-width="1.2" stroke="#f00" stroke-miterlimit="10" fill="none"/><path d="M218.2 145.688l8.077-10.06" stroke-width="1.2" stroke="#000" stroke-miterlimit="10" fill="none"/><path d="M226.277 135.63l8.078-10.06" stroke-width="1.2" stroke="#f00" stroke-miterlimit="10" fill="none"/><path d="M220.566 147.59l-25.5-3.938" stroke-width="1.2" stroke="#000" stroke-miterlimit="10" fill="none"/><path d="M232.723 120.973h9v13h-9zm0 0" fill="#fff"/><use xlink:href="#b" x="232.723" y="130.874" fill="#f00"/><path d="M195.066 143.652l-16.16 20.118M188.715 141.863l-12.926 16.094M185.723 119.602l9.343 24.05M178.906 163.77l-25.5-3.934M153.406 159.836l-9.34-24.05M158.133 155.234l-7.477-19.242M144.066 135.785l16.157-20.117" stroke-width="1.2" stroke="#000" stroke-miterlimit="10" fill="none"/><path d="M118.566 131.852l24.805 8.433 1.388-9zm0 0"/><path d="M160.223 115.668l25.5 3.934M161.848 122.063l20.398 3.148M118.566 131.852l-9.343-24.05M118.566 131.852l-8.082 10.058" stroke-width="1.2" stroke="#000" stroke-miterlimit="10" fill="none"/><path d="M110.484 141.91l-8.078 10.06" stroke-width="1.2" stroke="#00f" stroke-miterlimit="10" fill="none"/><path d="M109.223 107.8l16.156-20.116M106.105 101.988l12.926-16.093M83.723 103.867l25.5 3.934M125.38 87.684l-9.345-24.05M116.035 63.633l-25.5-3.934M112.563 69.238L92.16 66.09M116.035 63.633l8.078-10.06" stroke-width="1.2" stroke="#000" stroke-miterlimit="10" fill="none"/><path d="M124.113 53.574l8.082-10.058" stroke-width="1.2" stroke="#f00" stroke-miterlimit="10" fill="none"/><path d="M90.535 59.7L74.38 79.815M74.38 79.816l9.343 24.05M80.973 80.02l7.472 19.242" stroke-width="1.2" stroke="#000" stroke-miterlimit="10" fill="none"/><path d="M132.195 43.516l12.75 1.968" stroke-width="1.2" stroke="#f00" stroke-miterlimit="10" fill="none"/><path d="M144.945 45.484l12.75 1.965" stroke-width="1.2" stroke="#000" stroke-miterlimit="10" fill="none"/><path d="M128.195 37.016h9v13h-9zm0 0" fill="#fff"/><use xlink:href="#b" x="128.195" y="46.917" fill="#f00"/><path d="M102.406 151.97L89.656 150" stroke-width="1.2" stroke="#00f" stroke-miterlimit="10" fill="none"/><path d="M89.656 150l-12.75-1.97M111.75 176.02l-4.672-12.028" stroke-width="1.2" stroke="#000" stroke-miterlimit="10" fill="none"/><path d="M107.078 163.992l-4.672-12.023" stroke-width="1.2" stroke="#00f" stroke-miterlimit="10" fill="none"/><path d="M98.406 145.47h8v13h-8zm0 0" fill="#fff"/><use xlink:href="#a" x="98.406" y="155.37" fill="#00f"/><path d="M76.906 148.03L60.75 168.15M60.75 168.148l4.672 12.028" stroke-width="1.2" stroke="#000" stroke-miterlimit="10" fill="none"/><path d="M65.422 180.176l4.672 12.023" stroke-width="1.2" stroke="#00f" stroke-miterlimit="10" fill="none"/><path d="M60.75 168.148m-2.84-.964l-.16 1.03m-2.68-1.995l-.32 2.057m-2.52-3.023l-.476 3.09m-2.363-4.06l-.636 4.126m-2.207-5.09l-.793 5.153m-2.047-6.118l-.953 6.184m-1.887-7.15l-1.113 7.212m-1.727-8.18l-1.273 8.246m-.81-8.953l-1.39 9" stroke="#000" stroke-miterlimit="10" fill="none"/><path d="M70.094 192.2l12.75 1.968" stroke-width="1.2" stroke="#00f" stroke-miterlimit="10" fill="none"/><path d="M82.844 194.168l12.75 1.965" stroke-width="1.2" stroke="#000" stroke-miterlimit="10" fill="none"/><path d="M70.094 192.2l-8.078 10.058" stroke-width="1.2" stroke="#00f" stroke-miterlimit="10" fill="none"/><path d="M62.016 202.258l-8.082 10.058" stroke-width="1.2" stroke="#000" stroke-miterlimit="10" fill="none"/><path d="M66.094 185.7h8v13h-8zm0 0" fill="#fff"/><use xlink:href="#a" x="66.094" y="195.601" fill="#00f"/><path d="M95.594 196.133l16.156-20.113" stroke-width="1.2" stroke="#000" stroke-miterlimit="10" fill="none"/><path d="M111.75 176.02l24.805 8.433 1.39-9zm0 0"/><path d="M53.934 212.316l9.343 24.05M60.91 234.465l-16.156 20.117M65.645 238.27l-16.157 20.113" stroke-width="1.2" stroke="#000" stroke-miterlimit="10" fill="none"/></g></svg>
